NotoEmoji/1f3f4-e0067-e0062-e0073-e0063-e0074-e007f.svg

<svg version="1.1" viewBox="0 0 36 36" xmlns="http://www.w3.org/2000/svg">
<rect x=".1" y="5.1" width="35.8" height="25.8" ry="3.9" fill="#fff" stroke="#0065BD" stroke-width=".2"/>
<path d="M13 18S0 8.586 0 8.895v18.21C0 27.414 13 18 13 18zm5 3S3.697 31 4.07 31h27.859C32.303 31 18 21 18 21zm5-3s13 9.414 13 9.105V8.895C36 8.586 23 18 23 18zm-5-3S3.697 5 4.07 5h27.859C32.303 5 18 15 18 15z" fill="#0065BD"/>
</svg>

<svg viewBox="0 0 36 36" xmlns="http://www.w3.org/2000/svg"><rect fill="#fff" height="25.8" ry="3.9" stroke="#0065bd" stroke-width=".2" width="35.8" x=".1" y="5.1"/><path d="m13 18s-13-9.41-13-9.1v18.21c0 .3 13-9.11 13-9.11zm5 3s-14.3 10-13.93 10h27.86c.37 0-13.93-10-13.93-10zm5-3s13 9.41 13 9.11v-18.21c0-.31-13 9.1-13 9.1zm-5-3s-14.3-10-13.93-10h27.86c.37 0-13.93 10-13.93 10z" fill="#0065bd"/></svg>
